X:120
T: Gusu fengguang, Da jiulianhuan)
N: C0169A
O: China, Jiangsu, Suzhou
S: III, 492]
N: Hier sind viele Weisen zusammengetragen. Wird von Streich-, Matouqin)
N: und Zupfinstrumenten begleitet. Die Saengerin imitiert die
N: Zwischenspiele. Charakter der Lokaloper. Saengerin: Huang Bai
N: +++Dieses Lied wurde GETEILT!! Der 2. u. 3. Teil folgt unter gleicher
N: Signatur. Mehrere Verzierungen. Vor- und Zwischenspiele weggelassen.
R: Xiaodiao, Shidiao, Jiandianhua diao, Matou diao, Manjianghong diao]
M: 2/4
L: 1/32
K: D
B6A2F2A2E2F2 | A12B4 | d6B2a2f2e2f2 | d16
f2B2d2e2f2e2a2f2 | e4f2e2d2B2A4 | B2d4B2B2A2A2F2 | A16
A2F2A2B2d8 | a2f2f2e2d8 | f2e2e2d2F2A2B2d2 | A8
A4A2F2 | a2f2f2e2d4e2d2 | B4d4A4B2A2 | F6E2D8
F3AF2A2B2A2d2B2 | A8
A4A2F2 | a2f2f2e2d4e2d2 | B4d4A4B2A2 | F6E2D8
B8B4c4 | B6A2F4A4 | B4B8c4 | B4B8d4
e4d4f4e4 | d6B2e4c4 | e4B8c4 | B2c2B2A2F2A2E2F2 | A12F4
B3de2f2e2d2B2d2 | A12d2B2 | A4A8B4 | e4d4f4e4 | d8z4
d4 | e6d2f4e4 | f2d4B2e4c4 | e4B8c4
B2c2B2A2F2A2E2F2 | A2F2A8B2A2 | F6E2D4B,2D2 | E12F4
A6F2d4e2d2 | B3dB2A2F8
A4B4B2A2A2F2 | E3FE2F2G2F2G2A2 | F6E2D8

